packages/foundations/assets/icons/functional/images/business & payment/shopping_basket_disabled_14.svg

<svg width="14" height="14" viewBox="0 0 14 14" fill="none" xmlns="http://www.w3.org/2000/svg">
<g clip-path="url(#clip0_184_132)">
<path fill-rule="evenodd" clip-rule="evenodd" d="M6.97721 1.75C8.11221 1.75 9.0142 2.322 9.47221 3.188L10.3542 2.305C10.4192 2.23999 10.4964 2.18842 10.5813 2.15324C10.6662 2.11806 10.7573 2.09995 10.8492 2.09995C10.9411 2.09995 11.0322 2.11806 11.1171 2.15324C11.202 2.18842 11.2792 2.23999 11.3442 2.305C11.5962 2.557 11.6442 2.994 11.3442 3.295C8.42882 6.21294 5.51215 9.12961 2.59421 12.045C2.46292 12.1763 2.28487 12.25 2.09921 12.25C1.91354 12.25 1.73549 12.1763 1.60421 12.045C1.47292 11.9137 1.39917 11.7357 1.39917 11.55C1.39917 11.3643 1.47292 11.1863 1.60421 11.055C1.86321 10.793 2.12321 10.533 2.38421 10.273L1.41221 5.39C1.3938 5.29471 1.39527 5.19664 1.41652 5.10194C1.43777 5.00724 1.47835 4.91795 1.5357 4.83966C1.59306 4.76137 1.66596 4.69577 1.74985 4.64696C1.83374 4.59814 1.9268 4.56718 2.02321 4.556L2.10421 4.551H4.19921C4.19921 2.994 5.34021 1.751 6.97721 1.751V1.75ZM12.0482 4.567C12.3562 4.637 12.6732 4.956 12.5862 5.389C12.2232 7.253 11.8602 9.117 11.4942 10.98C11.4601 11.1403 11.3723 11.2841 11.2454 11.3877C11.1185 11.4913 10.96 11.5486 10.7962 11.55H5.06421L6.46421 10.15H10.2292L11.1232 5.492L12.0482 4.567ZM6.70921 5.95H2.96221L3.57921 9.078L6.70921 5.95ZM6.99921 3.15C6.16621 3.15 5.65421 3.667 5.60921 4.438L5.60621 4.55H8.10921L8.37821 4.281C8.26921 3.612 7.75321 3.15 6.99921 3.15Z" fill="#1A1C1F"/>
</g>
<defs>
<clipPath id="clip0_184_132">
<rect width="14" height="14" fill="white"/>
</clipPath>
</defs>
</svg>

<svg xmlns="http://www.w3.org/2000/svg" width="14" height="14" fill="none"><g clip-path="url(#a)"><path fill="#1A1C1F" fill-rule="evenodd" d="M6.977 1.75c1.135 0 2.037.572 2.495 1.438l.882-.883a.7.7 0 0 1 .99.99q-4.373 4.377-8.75 8.75a.7.7 0 0 1-.99-.99l.78-.782-.972-4.883a.705.705 0 0 1 .611-.834l.081-.005H4.2c0-1.557 1.141-2.8 2.778-2.8zm5.071 2.817c.308.07.625.389.538.822q-.544 2.796-1.092 5.591a.72.72 0 0 1-.698.57H5.064l1.4-1.4h3.765l.894-4.658zM6.71 5.95H2.962l.617 3.128zM7 3.15c-.833 0-1.345.517-1.39 1.288l-.003.112H8.11l.27-.269c-.11-.669-.626-1.131-1.38-1.131" clip-rule="evenodd"/></g><defs><clipPath id="a"><path fill="#fff" d="M0 0h14v14H0z"/></clipPath></defs></svg>
